!!!!SEGMENT: pl-sa--280-a-vii-40_caldara-antonio--o-quam-formosa.krn
!!!cenid: 17xx:601
!!!COM: Caldara, Antonio
!!!COM-rismID: pe43516
!!!CDT: 1670-1736/12/28
!!!CNT: Italian
!!!OTL: O quam formosa
!!!PDT:
!!!AGN: Sacred
!!!SMS-siglum: PL-SA
!!!SMS-shelfmark: 280/A VII 40
!!!SMS-shelfwork: W
!!!SMS-variant:
!!!SMS-altvar:
!!!NIFC-rismSourceID: 1001039784
!!!NIFC-rismChildID: 1001039784
!!!NIFC-islandoraID: none
!!!URL-pdf-islandora:
!!!URL-scan: https://bc.bdsandomierz.pl/dlibra/publication/1763/edition/1731/content @EN{Scan in the Sandomierz Diocese Digital Library} @PL{Skany w portalu Cyfrowa Biblioteka Diecezjalna w Sandomierzu}
!!!ONB-nifc:
!!!AIN: 1 alto 1 organ 2 violn 1 vox
!!!key:
**kern	**fba	**kern	**kern	**kern	**text	**kern	**text
*part5	*	*part4	*part3	*part2	*part2	*part1	*part1
*staff5	*	*staff4	*staff3	*staff2	*staff2	*staff1	*staff1
*Iorgan	*	*Ivioln	*Ivioln	*Ialto	*	*Ivox	*
*I"Organo è Cymbalo.	*	*I"Violino 2do.	*I"Violino Primo	*I"Alto obligato	*	*I"Canto obligato	*
*I'org	*	*I'vl 2	*I'vl 1	*I'A	*	*I'C	*
*clefF4	*	*clefG2	*clefG2	*clefC3	*	*clefC1	*
*k[b-e-]	*	*k[b-e-]	*k[b-e-]	*k[b-e-]	*	*k[e-b-]	*
*g:	*	*g:	*g:	*g:	*	*g:	*
*M4/4	*	*M4/4	*M4/4	*M4/4	*	*M4/4	*
*met(c)	*	*met(c)	*met(c)	*met(c)	*	*met(c)	*
=1	=1	=1	=1	=1	=1	=1	=1
!LO:TX:a:t=Solo	!	!	!	!	!	!	!
!LO:TX:rj:b:t=O quam Formosa	!	!LO:TX:b:t=O quam Formosa	!LO:TX:b:t=O quam Formosa	!	!	!	!
!LO:TX:rj:a:t=Vivace	!	!LO:TX:a:t=Vivace	!LO:TX:a:t=Vivace	!	!	!	!
4G\	.	8r	8r	00r	.	00r	.
.	.	8b-\L	8dd\L	.	.	.	.
8r	.	(8b-\	(8dd\	.	.	.	.
8F#X\	7 5	8cc\J)	8ee-\J)	.	.	.	.
4G\	.	(8b-\L	(8dd\L	.	.	.	.
.	.	8cc\)	8ee-\)	.	.	.	.
8r	.	(8b-\	(8dd\	.	.	.	.
8c\	.	8cc\J)	8ee-\J)	.	.	.	.
=2	=2	=2	=2	=2	=2	=2	=2
4d\	6 4	8b-/L	8dd\L	.	.	.	.
.	.	8a/	8cc\	.	.	.	.
4D/	5 3	8g/	8b-\	.	.	.	.
.	.	8f#X/J	8a\J	.	.	.	.
4G\	.	4g/	4g/	.	.	.	.
4r	.	4G/	4G/	.	.	.	.
=3	=3	=3	=3	=3	=3	=3	=3
4B-\	.	8r	8r	.	.	.	.
.	.	8dd\L	8ff\L	.	.	.	.
8r	.	(8dd\	(8ff\	.	.	.	.
8A\	7 5	8ee-\J)	8gg\J)	.	.	.	.
4B-\	.	(8dd\L	(8ff\L	.	.	.	.
.	.	8ee-\)	8gg\)	.	.	.	.
8r	.	(8dd\	(8ff\	.	.	.	.
8E-\	6 5	8ee-\J)	8gg\J)	.	.	.	.
=4	=4	=4	=4	=4	=4	=4	=4
4F\	6 4	8dd\L	8ff\L	.	.	.	.
.	.	8cc\	8ee-\	.	.	.	.
4FF/	5 3	8b-\	8dd\	.	.	.	.
.	.	8a\J	8cc\J	.	.	.	.
4BB-/	.	4b-\	4b-\	.	.	.	.
4r	.	4B-/	4B-/	.	.	.	.
=5	=5	=5	=5	=5	=5	=5	=5
4G\	.	8r	8r	00r	.	00r	.
.	.	8gg\L	8bb-\L	.	.	.	.
4r	.	(8ff#X\	8aa\	.	.	.	.
.	.	8gg\J)	8bb-\J	.	.	.	.
4r	.	8b-\L	8dd\L	.	.	.	.
.	.	8cc\J	8ee-\J	.	.	.	.
8r	.	[4b-\	[<4dd\	.	.	.	.
8F#X\	7 5	.	.	.	.	.	.
=6	=6	=6	=6	=6	=6	=6	=6
4G\	.	8b-\L]	8dd\L]	.	.	.	.
.	.	8gg\	8bb-\	.	.	.	.
4r	.	(8ff#X\	8aa\	.	.	.	.
.	.	8gg\J)	8bb-\J	.	.	.	.
4r	.	8b-\L	8dd\L	.	.	.	.
.	.	8cc\J	8ee-\J	.	.	.	.
8r	.	[<4b-\	[<4dd\	.	.	.	.
8G\	.	.	.	.	.	.	.
=7	=7	=7	=7	=7	=7	=7	=7
4d\	.	8b-/L]	8dd\L]	.	.	.	.
.	.	8a/	8cc\	.	.	.	.
4D/	6 4	8g/	8b-\	.	.	.	.
.	5 3	8f#X/J	8a\J	.	.	.	.
!	!	!LO:LB:g=original	!LO:LB:g=original	!	!	!	!
4G\	.	8g/L	8g/L	.	.	.	.
.	.	8d/J	8d/J	.	.	.	.
4r	.	4G/	4G/	.	.	.	.
!LO:LB:g=original	!	!	!	!	!	!	!
=8	=8	=8	=8	=8	=8	=8	=8
4G\	.	8r	8r	.	.	.	.
.	.	8gg\L	(8bb-\L	.	.	.	.
4r	.	(8ff#X\	8aa\	.	.	.	.
.	.	8gg\J)	8bb-\J)	.	.	.	.
4r	.	8b-\L	8dd\L	.	.	.	.
.	.	8cc\J	8ee-\J	.	.	.	.
8r	.	[<4b-\	[<4dd\	.	.	.	.
8F#X\	7 5	.	.	.	.	.	.
=9	=9	=9	=9	=9	=9	=9	=9
4G\	.	8b-\L]	8dd\L]	00r	.	1r	.
.	.	8gg\	8bb-\	.	.	.	.
4r	.	(8ff#X\	8aa\	.	.	.	.
.	.	8gg\J)	8bb-\J	.	.	.	.
4r	.	8b-\L	8dd\L	.	.	.	.
.	.	8cc\J	8ee-\J	.	.	.	.
8r	.	4b-\	[<4dd\	.	.	.	.
8G\	.	.	.	.	.	.	.
=10	=10	=10	=10	=10	=10	=10	=10
4d\	.	8b-\L	8dd\L]	.	.	2r	.
.	.	8gg\	8gg\	.	.	.	.
4D/	4#	8a\	8a\	.	.	.	.
.	.	8ff#X\J	8ff#X\J	.	.	.	.
4G\	.	4g/	4g/	.	.	8r	.
!	!	!	!	!	!	!LO:TX:a:t=Solo	!
.	.	.	.	.	.	8dd\	O
4r	.	4r	4r	.	.	8dd\	quam
.	.	.	.	.	.	8dd\	For-
=11	=11	=11	=11	=11	=11	=11	=11
4G\	5	0r	0r	.	.	8dd\L	-mo-
.	6	.	.	.	.	8ee-X\J	.
4F#X\	6	.	.	.	.	8dd\L	-sa
.	.	.	.	.	.	8ee-\J	.
8G\L	.	.	.	.	.	4.dd\	es
8A\	.	.	.	.	.	.	.
8B-\	.	.	.	.	.	.	.
8c\J	.	.	.	.	.	8ee-\	o
=12	=12	=12	=12	=12	=12	=12	=12
4G\	.	.	.	.	.	8dd\L	Ca-
.	.	.	.	.	.	8gg\J	.
4A\	6\	.	.	.	.	8ff#X\L	-ra
.	.	.	.	.	.	8gg\J	.
8B-\L	6	.	.	.	.	4.dd\	Ca-
8A\	.	.	.	.	.	.	.
8B-\	.	.	.	.	.	.	.
8c\J	.	.	.	.	.	8ee-\	-ra
=13	=13	=13	=13	=13	=13	=13	=13
4B-\	6	1r	1r	1r	.	8dd\L	Ca-
.	.	.	.	.	.	8gg\J	.
8r	.	.	.	.	.	8ff#X\L	-ra
8G\	.	.	.	.	.	8gg\J	.
4d\	.	.	.	.	.	4b-\	bo-
4D/	6 4	.	.	.	.	(8.at\	-ni-
.	5 3	.	.	.	.	16g/)	.
=14	=14	=14	=14	=14	=14	=14	=14
4G\	.	8r	8r	2r	.	4g/	-tas
.	.	8b-/L	8gg\L	.	.	.	.
4r	.	8d/	(8b-\	.	.	4r	.
.	.	8e-/J	8cc\J)	.	.	.	.
4B-\	.	4d/	4b-/	8r	.	2r	.
!	!	!	!	!LO:TX:a:t=S.	!	!	!
.	.	.	.	8f\	O	.	.
8r	.	4r	4r	8f\	.	.	.
8E-\	.	.	.	8g\	quam	.	.
=15	=15	=15	=15	=15	=15	=15	=15
4B-\	6	1r	1r	(8f\L	Sua-	0r	.
.	.	.	.	8g\J)	.	.	.
4A\	7	.	.	(8f\L	-vis	.	.
.	.	.	.	8g\J)	.	.	.
4B-\	6	.	.	4.f\	es	.	.
4A\	7	.	.	.	.	.	.
.	.	.	.	8g\	o	.	.
!LO:LB:g=original	!	!	!	!	!	!	!
=16	=16	=16	=16	=16	=16	=16	=16
4B-\	.	2r	2r	8f\L	bo-	.	.
.	.	.	.	8b-X\J	.	.	.
8r	.	.	.	8a\L	-na	.	.
8B-\	.	.	.	8b-\J	.	.	.
*	*	*	*	*2\right	*	*	*
4A\	6	8r	8r	[<2f\	bo-	.	.
.	.	8aa\L	8ccc\L	.	.	.	.
4F\	.	(8ff\	(8ff\	.	.	.	.
.	.	8gg\J)	8gg\J)	.	.	.	.
=17	=17	=17	=17	=17	=17	=17	=17
4B-\	.	4ff\	4ff\	8f\L]	.	1r	.
.	.	.	.	8b-\J	.	.	.
8r	.	4r	4r	8a\L	-na	.	.
8G\	.	.	.	8b-\J	.	.	.
4F\	6 4	2r	2r	4d\	Ca-	.	.
4FF/	5 3	.	.	(8.cT/	-ri-	.	.
.	.	.	.	16B-/)	.	.	.
=18	=18	=18	=18	=18	=18	=18	=18
4BB-/	.	8r	8r	4B-/	tas	4r	.
.	.	8dd\	8dd\	.	.	.	.
4F#X\	6	4d/	4d/	4r	.	4dd\	O
4G\	.	2r	2r	2r	.	4.dd\	Quam
4F#X\	6	.	.	.	.	.	.
.	.	.	.	.	.	8ee-X\	.
!	!	!	!	!	!	!LO:LB:g=original	!
=19	=19	=19	=19	=19	=19	=19	=19
4G\	.	1r	1r	1r	.	(8dd\L	Sua-
.	.	.	.	.	.	8gg\J)	.
4A\	6\	.	.	.	.	(8ff#X\L	-vis
.	.	.	.	.	.	8gg\J)	.
8B-\L	6	.	.	.	.	4.dd\	es
8A\	.	.	.	.	.	.	.
8B-\	.	.	.	.	.	.	.
8c\J	.	.	.	.	.	8ee-\	o
!	!	!	!LO:LB:g=original	!	!	!	!
=20	=20	=20	=20	=20	=20	=20	=20
4d\	8	2r	2r	2r	.	8dd\	Ca-
.	7	.	.	.	.	8cc\	-ra
!LO:SIC:o:s=:v:# na wysokości F	!	!	!	!	!	!	!
4D/	6	.	.	.	.	8b-\	bo-
.	5	.	.	.	.	8a\	-ni-
!	!	!	!	!LO:LB:g=original	!	!	!
4G\	.	8r	8r	4r	.	4g/	-tas
.	.	8gg\	8gg\	.	.	.	.
8r	.	4g/	4g/	8r	.	4r	.
8G\	.	.	.	8b-\	O	.	.
!	!	!LO:LB:g=original	!	!	!	!	!
=21	=21	=21	=21	=21	=21	=21	=21
4F\	6	0r	0r	4.a\	Quam	00r	.
4C#X/	6	.	.	.	.	.	.
.	.	.	.	8b-\	For-	.	.
4D\	.	.	.	(8a\L	-mo-	.	.
.	.	.	.	8dd\J)	.	.	.
4En\	6\	.	.	8cc#X\L	-sa	.	.
.	.	.	.	8dd\J	.	.	.
=22	=22	=22	=22	=22	=22	=22	=22
8F\L	6	.	.	4.a,<\	es	.	.
8En\	.	.	.	.	.	.	.
8F\	.	.	.	.	.	.	.
8G\J	.	.	.	8b-\	o	.	.
!LO:SIC:o:s=:v:# na wysokości C	!	!	!	!	!	!	!
4A\	8	.	.	8a\	bo-	.	.
.	2	.	.	8g\	-na	.	.
4AA/	6	.	.	8f\	Ca-	.	.
!	!	!	!	!LO:SIC:o:s=:v:8en	!	!	!
.	5	.	.	8e#\	-ri-	.	.
=23	=23	=23	=23	=23	=23	=23	=23
4D/	.	8r	8r	4d\	-tas	.	.
.	.	8fn/L	8dd\L	.	.	.	.
4r	.	8en/	(8cc#X\	4r	.	.	.
.	.	8f/J	8dd\J)	.	.	.	.
!LO:LB:g=original	!	!	!	!	!	!	!
4r	.	8ff\L	8aa\L	2r	.	.	.
.	.	8gg\J	8bb-\J	.	.	.	.
8r	.	[<4ff\	[<4aa\	.	.	.	.
8C#X/	7 5	.	.	.	.	.	.
=24	=24	=24	=24	=24	=24	=24	=24
!	!	!LO:TX:a:t=P:problem=mixed beam	!	!	!	!	!
4D/	.	8ff\L]	8aa\L]	0r	.	.	.
.	.	8f/	8dd\	.	.	.	.
4r	.	8en/	8cc#X\	.	.	.	.
.	.	8f/J	8dd\J	.	.	.	.
4r	.	8ff\L	8aa\L	.	.	.	.
.	.	8gg\J	8bb-\J	.	.	.	.
8r	.	[<4ff\	[<4aa\	.	.	.	.
8c#X\	6 4	.	.	.	.	.	.
=25	=25	=25	=25	=25	=25	=25	=25
4d\	6 4	8ff\L]	8aa\L]	.	.	1r	.
.	.	8een\	8gg\	.	.	.	.
4A\	5 #	8dd\	8ff\	.	.	.	.
.	.	8cc#X\J	8een\J	.	.	.	.
4B-\	.	4dd\	4dd\	.	.	.	.
4G\	.	8r	8r	.	.	.	.
.	.	8dd\	8gg\	.	.	.	.
=26	=26	=26	=26	=26	=26	=26	=26
4A\	6 4	4a/	4ff\	1r	.	2r	.
4AA/	5 #	4cc#X\	4een\	.	.	.	.
4D/	.	4dd\	4dd\	.	.	4r	.
4r	.	4r	4r	.	.	8r	.
.	.	.	.	.	.	8a\	O
=27	=27	=27	=27	=27	=27	=27	=27
4D\	-	2r	2r	4r	.	4dd\	Quam
4F#X\	6 5	.	.	8r	.	4cc\	For-
.	.	.	.	8d\	O	.	.
!	!	!	!	!	!	!LO:SIC:o:s=:v:4.bn	!
4G\	n	4r	4r	4g\	Ca-	4.b#X\	-mo-
8r	.	8r	8r	4f\	-ra	.	.
!	!	!	!	!	!	!LO:SIC:o:s=:v:8bn	!
8G\	n2	8dd\	8gg\	.	.	8b#\	-sa
=28	=28	=28	=28	=28	=28	=28	=28
4c\	n	4g/	4gg\	4.en\	bo-	4cc\	es
4B-\	4 2	4g/	4gg\	.	.	8r	.
.	.	.	.	8e\	-ni-	8g\	o
4A\	6	4a/	4ff\	4f\	-tas	4cc\	Quam
4En\	6 5	4r	4r	8r	.	4b-X\	.
.	.	.	.	8c/	o	.	.
=29	=29	=29	=29	=29	=29	=29	=29
4F\	.	4r	4r	4f\	bo-	4.an\	Sua-
8r	.	8r	8r	4e-X\	-na	.	.
8F\	-2	8cc\	8ff\	.	.	8a\	-vis
!	!	!	!	!LO:LB:g=original	!	!	!
4B-\	.	4f/	4ff\	4.dt\	Ca-	4b-\	es
4A-X\	4 2	4f/	4ff\	.	.	4r	.
.	.	.	.	8d\	-ri-	.	.
=30	=30	=30	=30	=30	=30	=30	=30
4G\	6	4g/	4ee-\	4e-X\	-tas	4r	.
4F#X\	6	4r	4r	4r	.	4dd\	o
4G\	6	2r	2r	4r	.	4ee-X\	Ca-
4F#X\	6	.	.	4d\	o	4dd\	-ra
!LO:LB:g=original	!	!	!LO:LB:g=original	!	!	!LO:LB:g=original	!
=31	=31	=31	=31	=31	=31	=31	=31
4G\	6	4r	4r	4e-X\	Bo-	2r	.
4F#X\	6	4f#X/	4dd\	4d\	-na	.	.
!	!	!LO:LB:g=original	!	!	!	!	!
4r	.	4g/	4ee-\	2r	.	4r	.
4F#X\	6	4f#X/	4dd\	.	.	4dd\	o
=32	=32	=32	=32	=32	=32	=32	=32
4G\	6	1r	1r	4r	.	4ee-X\	bo-
8F#X\L	6_	.	.	8r	.	8dd,<\	-na
8G\J	_	.	.	8b-\	o	8dd\	o
2C/	6	.	.	8cc\L	Ca-	8ee-\L	Ca-
.	.	.	.	8b-\	.	8dd\	.
.	5	.	.	8a\	.	8cc\	.
.	.	.	.	8g\J	.	8b-\J	.
=33	=33	=33	=33	=33	=33	=33	=33
*	*	*	*	*	*	*2\right	*
8d\L	#	2r	2r	2f#X\	.	2at\	.
8c\	.	.	.	.	.	.	.
8B-\	.	.	.	.	.	.	.
8A\J	.	.	.	.	.	.	.
4G\	.	8r	8r	4g\	-ra	4b-\	-ra
.	.	8gg\	8gg\	.	.	.	.
8r	.	4g/	4g/	8r	.	8r	.
8F#X\	7 5	.	.	8cc\	o	8ee-\	o
=34	=34	=34	=34	=34	=34	=34	=34
4G\	.	8r	8r	2b-T\	Ca-	[2ddt\	Ca-
.	.	8gg\L	8bb-\L	.	.	.	.
4r	.	(8ff#X\	(8aa\	.	.	.	.
.	.	8gg\J)	8bb-\J)	.	.	.	.
4r	.	8b-\L	8dd\L	4.b-\	.	4.dd\]	.
.	.	8cc\J	8ee-\J	.	.	.	.
!	!	!	!LO:N:vis=8	!	!	!	!
8r	.	[<4b-\	[<4dd\	.	.	.	.
8F#X\	7 5	.	.	8cc\	.	8ee-\	.
=35	=35	=35	=35	=35	=35	=35	=35
!	!	!LO:SIC:o:S=:v:brak zakończenia ligatury	!	!	!	!	!
4G\	.	8b-\L]	8dd\L]	2b-T\	.	[2ddt\	.
.	.	8gg\	8bb-\	.	.	.	.
4r	.	(8ff#X\	8aa\	.	.	.	.
.	.	8gg\J)	8bb-\J	.	.	.	.
4r	.	8b-\L	8dd\L	4.b-\	.	4.dd\]	.
.	.	8cc\J	8ee-\J	.	.	.	.
8r	.	[<4b-\	[<4dd\	.	.	.	.
8F#X\	7 5	.	.	8cc\	.	8ee-\	.
=36	=36	=36	=36	=36	=36	=36	=36
4G\	.	4b-\]	4dd\]	8b-\L	.	(8dd\L	.
.	.	.	.	8cc\J	.	8ee-\J)	.
8r	.	8r	8r	8b-\L	-ra	(8dd\L	-ra
8c\	6 5	8g/	8g/	8a\J	.	8cc\J)	.
4d\	.	4d/	4d/	4g\	bo-	4b-\	bo-
4D/	6 4	4f#X/	4f#X/	4f#X\	-ni-	4a\	-ni-
.	5 #	.	.	.	.	.	.
!	!	!	!	!LO:LB:g=original	!	!	!
=37	=37	=37	=37	=37	=37	=37	=37
4G\	6	4g/	4g/	4g\	-tas	4g,</	-tas
4F#X\	6	4r	4r	4r	.	4dd\	o
4G\	6	2r	2r	4r	.	4ee-X\	Ca-
4F#X\	6	.	.	4d\	o	4dd\	-ra
=38	=38	=38	=38	=38	=38	=38	=38
4G\	6-	4r	4r	4e-X\	bo-	2r	.
4F#X\	6	4f#X/	4dd\	4d\	-na	.	.
!LO:LB:g=original	!	!	!	!	!	!	!
4r	.	4g/	4ee-\	2r	.	4r	.
8ryy	.	4f#X/	4dd\	.	.	4dd\	o
8F#X\	6	.	.	.	.	.	.
=39	=39	=39	=39	=39	=39	=39	=39
4G\	6_	1r	1r	4r	.	4ee-X\	bo-
8F#X\L	_	.	.	8r	.	8dd\	-na
8G\J	.	.	.	8b-\	o	8dd\	o
!	!	!	!	!	!	!LO:LB:g=original	!
4C/	8	.	.	8cc\L	Ca-	8ee-\L	Ca-
.	7	.	.	8b-\	.	8dd\	.
4c\	6	.	.	8a\	.	8cc\	.
.	5	.	.	8g\J	.	8b-\J	.
=40	=40	=40	=40	=40	=40	=40	=40
8d\L	#	2r	2r	2f#Xt\	.	2at\	.
8c\	.	.	.	.	.	.	.
8B-\	.	.	.	.	.	.	.
8A\J	.	.	.	.	.	.	.
4G\	.	8r	8r	4g\	-ra	4b-\	-ra
.	.	8gg\	8gg\	.	.	.	.
8r	.	4g/	4g/	8r	.	8r	.
8F#X\	7 5	.	.	8cc\	o	8ee-\	o
=41	=41	=41	=41	=41	=41	=41	=41
4G\	.	8r	8r	[2b-T\	Ca-	[2ddt\	Ca-
.	.	8gg\L	8bb-\L	.	.	.	.
4r	.	(8ff#X\	8aa\	.	.	.	.
.	.	8gg\J)	8bb-\J	.	.	.	.
4r	.	8b-\L	(8dd\L	4.b-\]	.	4.dd\]	.
.	.	8cc\J	8ee-\J)	.	.	.	.
8r	.	[<4b-\	[<4dd\	.	.	.	.
8F#X\	7 5	.	.	8cc\	.	8ee-\	.
!	!	!LO:LB:g=original	!LO:LB:g=original	!	!	!	!
=42	=42	=42	=42	=42	=42	=42	=42
!	!	!LO:SIC:o:S=:v:brak zakończenia ligatury	!LO:SIC:o:S=:v:brak zakończenia ligatury	!	!	!	!
4G\	.	4b-\]	8dd\L]	2b-T\	.	[2ddt\	.
.	.	.	8bb-\	.	.	.	.
4r	.	8r	8aa\	.	.	.	.
.	.	8gg\	8bb-\J	.	.	.	.
4r	.	4d/	8dd\L	4.b-\	.	4.dd\]	.
.	.	.	8ee-\J	.	.	.	.
8r	.	4f#X/	[<4dd\	.	.	.	.
8F#X\	7 5	.	.	8cc\	.	8ee-\	.
=43	=43	=43	=43	=43	=43	=43	=43
!LO:TX:a:t=P:problem=mixed beam	!	!	!	!	!	!	!
8G\L	.	4b-/	4dd\]	8b-\L	.	8dd\L	.
8F#X\	.	.	.	8cc\	.	8ee-\J	.
8G\	.	8r	8r	(8b-\	-ra	8dd\L	-ra
8C/J	.	8gg\	8gg\	8a\J)	.	8cc\J	.
4D\	6 4	4d/	4d/	4g\	bo-	4b-\	bo-
4DD/	5 #	4f#X/	4f#X/	4f#X\	-ni-	4a\	-ni-
=44	=44	=44	=44	=44	=44	=44	=44
4G\	.	8g/L	8g\L	4g\	-tas	4g/	-tas
.	.	(8b-/	(8dd\	.	.	.	.
8r	.	8b-/	8dd\	4r	.	4r	.
8F#X\	7 5	8cc/J)	8ee-\J)	.	.	.	.
4G\	.	(8b-\L	(8dd\L	2r	.	2r	.
.	.	8cc\)	8ee-\)	.	.	.	.
8r	.	(8b-\	(8dd\	.	.	.	.
8C/	.	8cc\J)	8ee-\J)	.	.	.	.
!LO:LB:g=original	!	!	!	!	!	!	!
=45	=45	=45	=45	=45	=45	=45	=45
!	!	!	!	!LO:TX:b:t=Fine	!	!LO:TX:b:t=Fine	!
4D\	.	8b-/L	8dd\L	00r;<;>	.	00r;<;>	.
.	.	8a/	8cc\	.	.	.	.
4DD/	6 4	8g/	8b-\	.	.	.	.
.	5 #	8f#X/J	8a\J	.	.	.	.
4GG/	.	4g/	4g/	.	.	.	.
4r	.	4G/	4G/	.	.	.	.
=46	=46	=46	=46	=46	=46	=46	=46
4G\	.	8r	8r	.	.	.	.
.	.	8gg\L	(8bb-\L	.	.	.	.
4r	.	8ff#X\	8aa\	.	.	.	.
.	.	8gg\J	8bb-\J)	.	.	.	.
4r	.	8b-\L	8dd\L	.	.	.	.
.	.	8cc\J	8ee-\J	.	.	.	.
8r	.	[<4b-\	[<4dd\	.	.	.	.
8F#X\	6	.	.	.	.	.	.
=47	=47	=47	=47	=47	=47	=47	=47
4G\	.	8b-\L]	8dd\L]	.	.	.	.
.	.	8gg\	8bb-\	.	.	.	.
!	!	!LO:SIC:o:s=:v:♯ above	!	!	!	!	!
4r	.	8ff#X\	8aa\	.	.	.	.
.	.	8gg\J	8bb-\J	.	.	.	.
4r	.	8b-\L	8dd\L	.	.	.	.
.	.	8cc\J	8ee-\J	.	.	.	.
8r	.	[<4b-\	[<4dd\	.	.	.	.
8G\	.	.	.	.	.	.	.
=48	=48	=48	=48	=48	=48	=48	=48
4d\	.	8b-\L]	8dd\L]	.	.	.	.
.	.	8gg\	8gg\	.	.	.	.
4D\	6 4	8a\	8a\	.	.	.	.
.	5 #	8ff#X\J	8ff#X\J	.	.	.	.
4G;;\	.	8g/L	8g/L	.	.	.	.
.	.	8d/J	8d/J	.	.	.	.
4r	.	4G;/	4G;;/	.	.	.	.
!	!	!	!	!LO:LB:g=original	!	!	!
=49	=49	=49||	=49||	=49||	=49||	=49||	=49||
4B-\	.	00r	00r	0r	.	8r	.
.	.	.	.	.	.	8dd\	Dul-
4r	.	.	.	.	.	8dd\	-ce-
.	.	.	.	.	.	8ee-X\	-do
4A-X\	6	.	.	.	.	4ff\	Ca-
4G\	6	.	.	.	.	4ee-\	-ra
=50	=50	=50	=50	=50	=50	=50	=50
4F\	6	.	.	.	.	4dd\	Ca-
4E-\	6	.	.	.	.	4cc\	.
8D\L	6\	.	.	.	.	8bn\L	.
8BBn\	6	.	.	.	.	8g\	.
8C\	.	.	.	.	.	8gg\	.
8F\J	.	.	.	.	.	8ff\J	.
!	!	!	!	!	!	!LO:LB:g=original	!
=51	=51	=51	=51	=51	=51	=51	=51
4G\	.	.	.	2r	.	4ee-\	.
4GG/	6 4	.	.	.	.	4dd\	-ra
.	5 n	.	.	.	.	.	.
4C/	.	.	.	8r	.	4cc\	Spes
.	.	.	.	8g\	O	.	.
4r	.	.	.	8g\	Mun-	4r	.
.	.	.	.	8a-X\	-di	.	.
!LO:TX:t=Volti	!	!	!	!	!	!	!
!LO:PB:g=original	!	!	!	!	!	!	!
=52	=52	=52	=52	=52	=52	=52	=52
4d-X\	6	.	.	4b-\	Ve-	00r	.
4c\	-6	.	.	4a-X\	.	.	.
4B-X\	6	.	.	4g\	.	.	.
4A-X\	6	.	.	4f\	.	.	.
=53	=53	=53	=53	=53	=53	=53	=53
!LO:TX:a:t=P:problem=mixed beam	!	!	!	!	!	!	!
8G\L	6\	1r	1r	8en\L	.	.	.
8En\	6\	.	.	8c\	.	.	.
8F\	6 5 -	.	.	8cc\	.	.	.
8BB-\J	.	.	.	8b-\J	.	.	.
4C/	-6 4	.	.	4a-X\	-ri-	.	.
4CC/	5 n	.	.	4g\	.	.	.
!	!	!LO:LB:g=original	!	!	!	!	!
=54	=54	=54	=54	=54	=54	=54	=54
4F\	.	8r	8r	4f\	-tas	.	.
.	.	8ff\L	8aa-X\L	.	.	.	.
4r	.	8een\	8gg\	4r	.	.	.
.	.	8ff\J	8aa-\J	.	.	.	.
4r	.	8a-X/L	8cc\L	2r	.	.	.
.	.	8b-/J	8dd-X\J	.	.	.	.
8r	.	[>4a-X/	[<4cc\	.	.	.	.
8En\	-7 5	.	.	.	.	.	.
!	!	!	!LO:LB:g=original	!	!	!	!
=55	=55	=55	=55	=55	=55	=55	=55
!	!	!	!LO:SIC:o:S=:v:brak zakończenia ligatury	!	!	!	!
4F\	-	8a-\L]	8cc\L]	0r	.	.	.
.	.	8ff\	8aa-X\	.	.	.	.
4r	.	8een\	8gg\	.	.	.	.
.	.	8ff\J	8aa-\J	.	.	.	.
4r	.	8a-X/L	8cc\L	.	.	.	.
.	.	8b-/J	8dd-X\J	.	.	.	.
8r	.	[4a-/	[<4cc\	.	.	.	.
8En\	6 -4	.	.	.	.	.	.
=56	=56	=56	=56	=56	=56	=56	=56
4F\	-	4a-/]	8cc\L]	.	.	1r	.
.	.	.	8ff\	.	.	.	.
8r	.	8r	8een\	.	.	.	.
8B-\	-	8f/	8ff\J	.	.	.	.
4c\	-	4f/	4a-X/	.	.	.	.
4C/	6 4	4en/	4g/	.	.	.	.
.	5 n	.	.	.	.	.	.
=57	=57	=57	=57	=57	=57	=57	=57
4F\	.	4f/	4f/	1r	.	8r	.
.	.	.	.	.	.	8cc\	Dul-
4r	.	4r	4r	.	.	8cc\	-ce-
.	.	.	.	.	.	8cc\	-do
4F\	.	2r	2r	.	.	4ff\	Ca-
4An\	-5	.	.	.	.	4ee-X\	-ra
=58	=58	=58	=58	=58	=58	=58	=58
4B-\	.	0r	0r	8r	.	8dd\L	Ca-
.	.	.	.	8f\	Dul-	8cc\J	.
4r	.	.	.	8f\	-ce-	4b-\	-ra
.	.	.	.	8f\	-do	.	.
4BB-/	.	.	.	4b-\	Ca-	2r	.
4D/	-5	.	.	4a-X\	.	.	.
=59	=59	=59	=59	=59	=59	=59	=59
4E-\	.	.	.	8.g\L	.	4r	.
.	.	.	.	16f\Jk	.	.	.
4r	.	.	.	4e-X\	-ra	4b-\	Si
4E-\	.	.	.	4r	.	[<2ee-X\	Can-
4G\	6	.	.	4e-\	Si	.	.
!LO:LB:g=original	!	!	!	!LO:LB:g=original	!	!	!
=60	=60	=60	=60	=60	=60	=60	=60
4F\	-7	8r	8r	[2a-X\	Can-	16ee-\LL]	.
.	.	.	.	.	.	16cc\	.
.	.	8aa-X\L	8aa-X\L	.	.	16dd\	.
.	.	.	.	.	.	16ee-\JJ	.
4r	.	8cc\	8cc\	.	.	16ff\LL	.
.	.	.	.	.	.	16ee-\	.
.	.	8b-\J	8b-\J	.	.	16dd\	.
.	.	.	.	.	.	16cc\JJ	.
4BB-/	-7	4d/	4d/	16a-\LL]	.	[<2ddt\	.
.	.	.	.	16f\	.	.	.
.	.	.	.	16g\	.	.	.
.	.	.	.	16a-\JJ	.	.	.
4r	.	4b-/	4b-/	16b-\LL	.	.	.
.	.	.	.	16a-X\	.	.	.
.	.	.	.	16g\	.	.	.
.	.	.	.	16f\JJ	.	.	.
=61	=61	=61	=61	=61	=61	=61	=61
4E-X\	7	8r	8r	2g\	.	16dd\LL]	.
.	.	.	.	.	.	16b-\	.
!	!	!LO:TX:a:t=P:problem=mixed beam	!LO:TX:a:t=P:problem=mixed beam	!	!	!	!
.	.	8gg\L	8gg\L	.	.	16cc\	.
.	.	.	.	.	.	16dd\JJ	.
4r	.	8b-/	8b-/	.	.	16ee-\LL	.
.	.	.	.	.	.	16dd\	.
.	.	8a-X/J	8a-X/J	.	.	16cc\	.
.	.	.	.	.	.	16bn\JJ	.
4A-X\	7	4c/	4c/	16g\LL	.	[<2ccT\	.
.	.	.	.	16e-\	.	.	.
.	.	.	.	16f\	.	.	.
.	.	.	.	16g\JJ	.	.	.
4r	.	4a-X/	4a-X/	16a-X\LL	.	.	.
.	.	.	.	16g\	.	.	.
.	.	.	.	16f\	.	.	.
.	.	.	.	16e-\JJ	.	.	.
=62	=62	=62	=62	=62	=62	=62	=62
4A-X\	6	8r	8r	[2f\	.	8cc\L]	.
!	!	!LO:TX:a:t=P:problem=mixed beam	!LO:TX:a:t=P:problem=mixed beam	!	!	!	!
.	.	8ff\L	8ff\L	.	.	16dd\L	.
.	.	.	.	.	.	16ee-\JJ	.
4F\	.	8a-X/	8a-X/	.	.	16ff\LL	.
.	.	.	.	.	.	16ee-\	.
.	.	8g/J	8g/J	.	.	16dd\	.
.	.	.	.	.	.	16cc\JJ	.
!	!	!	!	!	!	!LO:LB:g=original	!
4G\	n	8gg\L	8gg\L	(4f\]	.	8bn\L	.
.	.	8bn\	8bn\	.	.	8g\J	.
4C/	.	8cc\	8cc\	8e-\L)	.	8cc\L	-di-
.	.	8dd\J	8dd\J	8d`\J	-di-	8dd\J	.
=63	=63	=63	=63	=63	=63	=63	=63
4G\	6 4	4g/	4ee-\	4e-,<\	-dus	4cc\	-dus
4GG/	5 n	4bn/	4dd\	4d\	Tu	4bn\	Tu
4C/	.	8cc\L	8cc\L	4c\	es	4cc\	es
.	.	8ee-\	8ccc\	.	.	.	.
4r	.	8dd\	(8bbn\	4r	.	4r	.
.	.	8ee-\J	8ccc\J)	.	.	.	.
=64	=64	=64	=64	=64	=64	=64	=64
4r	.	8g/L	8ee-X\L	1r	.	0r	.
.	.	8a-X/J	8ff\J	.	.	.	.
8r	.	[4g/	4ee-\	.	.	.	.
8BBn/	-7 5	.	.	.	.	.	.
!	!	!LO:LB:g=original	!	!	!	!	!
!	!	!LO:TX:a:t=P:problem=mixed beam	!	!	!	!	!
4C/	.	8g/L]	8ee-\L	.	.	.	.
.	.	(8ee-\	(8ccc\	.	.	.	.
8r	.	8dd\	8bbn\	.	.	.	.
8c\	.	8ee-\J)	8ccc\J)	.	.	.	.
!	!	!	!	!LO:TX:b:t=Volti Subito	!	!	!
!	!	!	!	!LO:PB:g=original	!	!	!
=65	=65	=65	=65	=65	=65	=65	=65
4G\	.	4cc\	4ee-X\	2r	.	.	.
4GG/	6 4	4bn\	4dd\	.	.	.	.
.	5 n	.	.	.	.	.	.
4C/	.	4cc\	4cc\	4r	.	.	.
4BBn/	6	4r	4r	8r	.	.	.
.	.	.	.	8g\	Si	.	.
=66	=66	=66	=66	=66	=66	=66	=66
4C/	.	0r	0r	8cc\L	Can-	2r	.
.	.	.	.	8b-\	.	.	.
4c\	.	.	.	8an\J	.	.	.
.	.	.	.	8g\	-di-	.	.
4d\	#	.	.	4.f#X\	-dus	4r	.
4c\	.	.	.	.	.	8r	.
.	.	.	.	8f#\	Tu	8dd\	Si
=67	=67	=67	=67	=67	=67	=67	=67
4B-\	6	.	.	4g\	es	8gg\L	Can-
.	.	.	.	.	.	8ff\	.
4G\	6 5	.	.	4r	.	(8ee-X\	-di-
.	.	.	.	.	.	8dd\J)	.
4A\	.	.	.	4r	.	4.cc#X\	-su
4AA/	#	.	.	8r	.	.	.
.	.	.	.	8an\	Si	8cc#\	Tu
=68	=68	=68	=68	=68	=68	=68	=68
4D\	.	2r	2r	8f\L	Can-	4dd\	es
.	.	.	.	16d\L	.	.	.
.	.	.	.	16en\JJ	.	.	.
8r	.	.	.	8f\L	.	8r	.
8C#X/	7 5	.	.	8g\J	.	8b-\	Si
4D/	.	8r	8r	[<2fT\	.	[<2at\	Can-
.	.	(8gg\L	8ddd\L	.	.	.	.
4r	.	8ff#X\	8ccc#X\	.	.	.	.
.	.	8gg\J)	8ddd\J	.	.	.	.
=69	=69	=69	=69	=69	=69	=69	=69
4r	.	8an/L	8ff\L	4.f\]	.	4.a\]	.
.	.	8b-/J	8gg\J	.	.	.	.
8r	.	4a/	4ff\	.	.	.	.
8C#X/	7 5	.	.	8g\	.	8b-\	.
4D/	.	8a\L	8ff\L	[<2fT\	.	[<2at\	.
.	.	(8ff\	8ddd\	.	.	.	.
4r	.	8een\	8ccc#X\	.	.	.	.
.	.	8ff\J)	8ddd\J	.	.	.	.
=70	=70	=70	=70	=70	=70	=70	=70
4r	.	8a/L	8ff\L	4.f\]	.	4.a\]	.
.	.	8b-/J	8gg\J	.	.	.	.
8r	.	4a/	[4ff\	.	.	.	.
8C#X/	7 5	.	.	8g\	.	8b-\	.
8D\L	.	4a/	4ff\]	8f\L	.	8a\L	.
8En\	6\	.	.	8g\	.	8cc#X\	.
8F\	6	8r	8r	8a\J	.	8dd\J	.
8G\J	6\	8g/	8b-/	8b-\	-di-	8een\	-di-
=71	=71	=71	=71	=71	=71	=71	=71
4A\	#	4en/	4a/	4.en\	-dus	4.cc#Xt\	-dus
4AA/	.	4a/	4cc#X\	.	.	.	.
.	.	.	.	8e\	Tu	8cc#\	Tu
8D\L	.	4a/	4dd\	8d\	es	4dd\	es
!	!	!	!	!LO:LB:g=original	!	!	!
8d\	6	.	.	8b-\L	Si	.	.
8c\	6	4r	4r	8a\	.	4r	.
8B-\J	6	.	.	8g\J	.	.	.
!	!	!	!	!	!	!LO:PB:g=original	!
=72	=72	=72	=72	=72	=72	=72	=72
4A\	#7	0r	0r	(2.g\	Can-	8r	.
.	.	.	.	.	.	8cc#X\L	Si
4A\	.	.	.	.	.	8dd\	.
.	.	.	.	.	.	8een\J	.
4A\	7	.	.	.	.	8a\L	Can-
.	.	.	.	.	.	8cc#X\	.
4D/	.	.	.	8f\L)	.	8dd\J	.
.	.	.	.	8en`\J	-di-	8een\	-di-
=73	=73	=73	=73	=73	=73	=73	=73
2AA/	5 4	.	.	4f\	-dus	4dd\	-dus
.	6 #	.	.	4en\	Tu	4cc#X\	Tu
4D/	.	.	.	4d\	es.	4dd\	es.
4r	.	.	.	4r	.	4r	.
=||;	=||	=||	=||;	=||	=||	=||	=||
!LO:TX:t=Da Capo	!	!LO:TX:t=Da Capo	!LO:TX:a:t=Da Capo	!LO:TX:a:t=Da Capo.	!	!LO:TX:t=Da Capo ||	!
1ryy	.	1ryy	1ryy	1ryy	.	1ryy	.
!	!	!	!	!LO:TX:b:t=AMDG(loria)m	!	!LO:TX:b:t=AMDG(loria)m.	!
==	==	==	==	==	==	==	==
*-	*-	*-	*-	*-	*-	*-	*-
!!!system-decoration: [(s1,s2)][(s3,s4)]s5
!!!RDF**kern: > = above
!!!RDF**kern: < = below
!!!EED: Leszek Kubiak
!!!EEV: 2020-10-03
!!!ENC: Krzysztof Stępień
!!!END: 2020-05-23
!!!YEC: Copyright 2022 Narodowy Instytut Fryderyka Chopina (https://polishscores.org)
!!!YEM: License CC-BY-4.0 (https://creativecommons.org/licenses/by/4.0)
